;FLAVOR:Marlin
;TIME:2450
;Filament used: 1.36682m
;Layer height: 0.2
;MINX:92.365
;MINY:99.2
;MINZ:0.2
;MAXX:142.627
;MAXY:135.8
;MAXZ:15
;TARGET_MACHINE.NAME:Creality Ender-3
;Generated with Cura_SteamEngine 5.6.0
M140 S25
M105
M190 S25
M104 S25
M105
M109 S25
M82 ;absolute extrusion mode
; Ender 3 Custom Start G-code
G92 E0 ; Reset Extruder
G28 ; Home all axes
G1 Z2.0 F3000 ; Move Z Axis up little to prevent scratching of Heat Bed
G1 X0.1 Y20 Z0.3 F5000.0 ; Move to start position
G1 X0.1 Y200.0 Z0.3 F1500.0 E15 ; Draw the first line
G1 X0.4 Y200.0 Z0.3 F5000.0 ; Move to side a little
G1 X0.4 Y20 Z0.3 F1500.0 E30 ; Draw the second line
G92 E0 ; Reset Extruder
G1 Z2.0 F3000 ; Move Z Axis up little to prevent scratching of Heat Bed
G1 X5 Y20 Z0.3 F5000.0 ; Move over to prevent blob squish
G92 E0
G92 E0
G1 F2700 E-5
;LAYER_COUNT:75
;LAYER:0
M107
G0 F6000 X96.156 Y104.188 Z0.2
;TYPE:SKIRT
G1 F2700 E0
G1 F1200 X98.528 Y103.057 E0.0874
G1 X100.278 Y102.716 E0.1467
G1 X113.539 Y102.716 E0.58776
G1 X114.418 Y102.111 E0.62326
G1 X115.675 Y101.378 E0.67165
G1 X117.017 Y100.719 E0.72138
G1 X117.856 Y100.378 E0.7515
G1 X119.447 Y99.86 E0.80715
G1 X120.21 Y99.666 E0.83334
G1 X121.805 Y99.38 E0.88723
G1 X123.391 Y99.226 E0.94023
G1 X124.641 Y99.2 E0.98182
G1 X125.967 Y99.267 E1.02598
G1 X126.778 Y99.358 E1.05312
G1 X127.948 Y99.562 E1.09262
G1 X129.791 Y100.037 E1.15592
G1 X130.541 Y100.29 E1.18225
G1 X132.043 Y100.914 E1.23634
G1 X133.337 Y101.566 E1.28454
G1 X134.041 Y101.986 E1.3118
G1 X135.269 Y102.835 E1.36146
G1 X136.533 Y103.862 E1.41563
G1 X137.141 Y104.432 E1.44335
G1 X138.265 Y105.642 E1.49827
G1 X138.907 Y106.439 E1.53231
G1 X139.865 Y107.823 E1.5883
G1 X140.255 Y108.478 E1.61365
G1 X141.09 Y110.148 E1.67575
G1 X141.381 Y110.852 E1.70109
G1 X141.964 Y112.601 E1.76241
G1 X142.153 Y113.341 E1.78781
G1 X142.474 Y115.108 E1.84754
G1 X142.561 Y115.895 E1.87388
G1 X142.627 Y117.749 E1.93558
G1 X142.562 Y119.069 E1.97954
G1 X142.481 Y119.827 E2.00489
G1 X142.158 Y121.642 E2.06621
G1 X141.97 Y122.381 E2.09157
G1 X141.388 Y124.129 E2.15285
G1 X141.097 Y124.834 E2.17821
G1 X140.292 Y126.446 E2.23814
G1 X139.756 Y127.346 E2.27298
G1 X138.965 Y128.489 E2.31922
G1 X138.262 Y129.369 E2.35668
G1 X137.224 Y130.487 E2.40742
G1 X136.421 Y131.236 E2.44394
G1 X135.485 Y132.003 E2.48419
G1 X134.271 Y132.859 E2.5336
G1 X133.22 Y133.491 E2.57439
G1 X131.842 Y134.188 E2.62575
G1 X131.022 Y134.534 E2.65535
G1 X129.33 Y135.098 E2.71467
G1 X128.063 Y135.415 E2.75811
G1 X127.054 Y135.599 E2.79222
G1 X125.482 Y135.767 E2.8448
G1 X124.692 Y135.8 E2.8711
G1 X123.424 Y135.776 E2.91328
G1 X121.769 Y135.615 E2.96859
G1 X120.319 Y135.356 E3.01758
G1 X119.245 Y135.081 E3.05445
G1 X118.258 Y134.761 E3.08896
G1 X116.607 Y134.086 E3.14829
G1 X115.39 Y133.473 E3.19361
G1 X114.732 Y133.086 E3.219
G1 X113.62 Y132.327 E3.26378
G1 X99.729 Y132.321 E3.7258
G1 X96.924 Y131.353 E3.82449
G1 X94.429 Y129.356 E3.93078
G1 X93.177 Y127.294 E4.01102
G1 X92.373 Y124.964 E4.093
G1 X92.373 Y118.654 E4.30287
G1 X92.637 Y117.592 E4.33927
G1 X92.423 Y116.196 E4.38624
G1 X92.365 Y110.045 E4.59083
G1 X93.352 Y107.216 E4.69049
G1 X95.014 Y105.252 E4.77606
G1 X96.156 Y104.188 E4.82797
G0 F6000 X96.385 Y104.522
G1 F1200 X98.652 Y103.441 E4.91151
G1 X100.319 Y103.116 E4.968
G1 X113.664 Y103.116 E5.41185
G1 X114.645 Y102.441 E5.45146
G1 X115.851 Y101.737 E5.49791
G1 X117.168 Y101.09 E5.54671
G1 X118.007 Y100.749 E5.57683
G1 X119.546 Y100.248 E5.63066
G1 X120.309 Y100.054 E5.65685
G1 X121.875 Y99.774 E5.70976
G1 X123.4 Y99.626 E5.76072
G1 X124.621 Y99.6 E5.80134
G1 X125.922 Y99.665 E5.84466
G1 X126.733 Y99.756 E5.87181
G1 X127.879 Y99.956 E5.9105
G1 X129.663 Y100.416 E5.97178
G1 X130.413 Y100.669 E5.9981
G1 X131.863 Y101.271 E6.05032
G1 X133.132 Y101.91 E6.09758
G1 X133.836 Y102.33 E6.12484
G1 X135.017 Y103.146 E6.17259
G1 X136.259 Y104.154 E6.22579
G1 X136.867 Y104.724 E6.25351
G1 X137.953 Y105.893 E6.30658
G1 X138.595 Y106.69 E6.34062
G1 X139.521 Y108.028 E6.39474
G1 X139.911 Y108.683 E6.42009
G1 X140.72 Y110.301 E6.48026
G1 X141.011 Y111.005 E6.5056
G1 X141.576 Y112.7 E6.56502
G1 X141.765 Y113.44 E6.59042
G1 X142.076 Y115.152 E6.6483
G1 X142.163 Y115.939 E6.67463
G1 X142.227 Y117.73 E6.73424
G1 X142.164 Y119.026 E6.7774
G1 X142.083 Y119.784 E6.80275
G1 X141.77 Y121.543 E6.86217
G1 X141.582 Y122.282 E6.88754
G1 X141.018 Y123.976 E6.94692
G1 X140.727 Y124.681 E6.97229
G1 X139.948 Y126.241 E7.03028
G1 X139.412 Y127.141 E7.06512
G1 X138.652 Y128.239 E7.10954
G1 X137.949 Y129.119 E7.147
G1 X136.951 Y130.194 E7.19579
G1 X136.148 Y130.943 E7.23231
G1 X135.254 Y131.676 E7.27076
G1 X134.04 Y132.532 E7.32017
G1 X133.014 Y133.148 E7.35997
G1 X131.686 Y133.819 E7.40946
G1 X130.866 Y134.165 E7.43906
G1 X129.233 Y134.71 E7.49632
G1 X127.991 Y135.021 E7.5389
G1 X126.982 Y135.205 E7.57301
G1 X125.465 Y135.367 E7.62376
G1 X124.675 Y135.4 E7.65006
G1 X123.432 Y135.376 E7.69141
G1 X121.839 Y135.221 E7.74464
G1 X120.389 Y134.962 E7.79363
G1 X119.368 Y134.7 E7.82869
G1 X118.381 Y134.38 E7.8632
G1 X116.787 Y133.729 E7.92047
G1 X115.593 Y133.128 E7.96493
G1 X114.935 Y132.741 E7.99032
G1 X113.742 Y131.927 E8.03835
G1 X99.796 Y131.921 E8.5022
G1 X97.119 Y130.997 E8.59639
G1 X94.735 Y129.089 E8.69795
G1 X93.54 Y127.121 E8.77453
G1 X92.773 Y124.898 E8.85274
G1 X92.773 Y118.703 E9.05879
G1 X93.045 Y117.61 E9.09625
G1 X92.823 Y116.192 E9.14399
G1 X92.766 Y110.112 E9.34622
G1 X93.706 Y107.418 E9.44112
G1 X95.287 Y105.545 E9.52264
G1 X96.385 Y104.522 E9.57256
G0 F6000 X96.614 Y104.856
G1 F1200 X98.776 Y103.825 E9.65222
G1 X100.36 Y103.516 E9.7059
G1 X113.789 Y103.516 E10.15255
G1 X114.872 Y102.771 E10.19627
G1 X116.052 Y102.083 E10.2417
G1 X117.319 Y101.461 E10.28865
G1 X118.158 Y101.12 E10.31877
G1 X119.645 Y100.636 E10.37078
G1 X120.408 Y100.442 E10.39696
G1 X121.945 Y100.168 E10.44889
G1 X123.409 Y100.026 E10.49781
G1 X124.63 Y100 E10.53843
G1 X125.877 Y100.063 E10.57996
G1 X126.688 Y100.154 E10.6071
G1 X127.81 Y100.35 E10.64499
G1 X129.535 Y100.795 E10.70424
G1 X130.285 Y101.048 E10.73057
G1 X131.709 Y101.64 E10.78186
G1 X132.927 Y102.254 E10.82722
G1 X133.631 Y102.674 E10.85449
G1 X134.79 Y103.475 E10.90135
G1 X135.985 Y104.446 E10.95256
G1 X136.593 Y105.016 E10.98028
G1 X137.641 Y106.144 E11.03149
G1 X138.283 Y106.941 E11.06553
G1 X139.177 Y108.233 E11.11779
G1 X139.567 Y108.888 E11.14314
G1 X140.35 Y110.454 E11.20137
G1 X140.641 Y111.158 E11.22671
G1 X141.188 Y112.799 E11.28424
G1 X141.377 Y113.539 E11.30965
G1 X141.678 Y115.196 E11.36566
G1 X141.765 Y115.983 E11.392
G1 X141.827 Y117.711 E11.44951
G1 X141.766 Y118.983 E11.49186
G1 X141.685 Y119.741 E11.51722
G1 X141.382 Y121.444 E11.57475
G1 X141.194 Y122.183 E11.60011
G1 X140.648 Y123.823 E11.6576
G1 X140.357 Y124.528 E11.68297
G1 X139.604 Y126.036 E11.73903
G1 X139.068 Y126.936 E11.77387
G1 X138.339 Y127.989 E11.81647
G1 X137.636 Y128.869 E11.85393
G1 X136.678 Y129.901 E11.90076
G1 X135.875 Y130.65 E11.93729
G1 X135.023 Y131.349 E11.97394
G1 X133.809 Y132.205 E12.02335
G1 X132.833 Y132.791 E12.06121
G1 X131.53 Y133.45 E12.10977
G1 X130.71 Y133.796 E12.13938
G1 X129.136 Y134.322 E12.19457
G1 X127.919 Y134.627 E12.2363
G1 X126.91 Y134.811 E12.27042
G1 X125.448 Y134.967 E12.31932
G1 X124.658 Y135 E12.34562
G1 X123.44 Y134.976 E12.38614
G1 X121.909 Y134.827 E12.4373
G1 X120.488 Y134.574 E12.4853
G1 X119.491 Y134.319 E12.51953
G1 X118.504 Y133.999 E12.55404
G1 X116.967 Y133.372 E12.60925
G1 X115.796 Y132.783 E12.65285
G1 X115.138 Y132.396 E12.67824
G1 X113.864 Y131.527 E12.72953
G1 X99.862 Y131.521 E13.19524
G1 X97.315 Y130.642 E13.28486
G1 X95.041 Y128.822 E13.38173
G1 X93.904 Y126.949 E13.45461
G1 X93.173 Y124.831 E13.52913
G1 X93.173 Y118.752 E13.73132
G1 X93.453 Y117.627 E13.76988
G1 X93.223 Y116.188 E13.81835
G1 X93.167 Y110.179 E14.01821
G1 X94.06 Y107.619 E14.10839
G1 X95.56 Y105.838 E14.18584
G1 X96.614 Y104.856 E14.23375
G0 F6000 X96.843 Y105.19
G1 F1200 X98.9 Y104.209 E14.30955
G1 X100.401 Y103.916 E14.36042
G1 X113.948 Y103.916 E14.81099
G1 X114.186 Y103.729 E14.82106
G1 X115.099 Y103.101 E14.85791
G1 X116.228 Y102.442 E14.90139
G1 X117.47 Y101.832 E14.94742
G1 X118.309 Y101.491 E14.97754
G1 X119.744 Y101.024 E15.02773
G1 X120.507 Y100.83 E15.05392
G1 X122.015 Y100.562 E15.10486
G1 X123.418 Y100.426 E15.15174
G1 X124.61 Y100.4 E15.1914
G1 X125.832 Y100.461 E15.23209
G1 X126.643 Y100.552 E15.25923
G1 X127.741 Y100.744 E15.29631
G1 X129.407 Y101.174 E15.35353
G1 X130.157 Y101.427 E15.37986
G1 X131.529 Y101.997 E15.42928
G1 X132.722 Y102.598 E15.47371
G1 X133.426 Y103.018 E15.50097
G1 X134.562 Y103.804 E15.54692
G1 X135.711 Y104.738 E15.59617
G1 X136.319 Y105.308 E15.62389
G1 X137.329 Y106.395 E15.67324
G1 X137.971 Y107.192 E15.70728
G1 X138.833 Y108.438 E15.75767
G1 X139.223 Y109.093 E15.78302
G1 X139.98 Y110.607 E15.83932
G1 X140.271 Y111.311 E15.86466
G1 X140.8 Y112.898 E15.9203
G1 X140.989 Y113.638 E15.9457
G1 X141.28 Y115.24 E15.99986
G1 X141.367 Y116.027 E16.02619
G1 X141.427 Y117.692 E16.0816
G1 X141.368 Y118.94 E16.12316
G1 X141.287 Y119.698 E16.14851
G1 X140.994 Y121.345 E16.20415
G1 X140.806 Y122.084 E16.22952
G1 X140.278 Y123.67 E16.28511
G1 X139.987 Y124.375 E16.31048
G1 X139.26 Y125.831 E16.36461
G1 X138.724 Y126.731 E16.39945
G1 X138.026 Y127.739 E16.44023
G1 X137.323 Y128.619 E16.47769
G1 X136.405 Y129.608 E16.52257
G1 X135.602 Y130.357 E16.55909
G1 X134.792 Y131.022 E16.59395
G1 X133.578 Y131.878 E16.64336
G1 X132.627 Y132.448 E16.68023
G1 X131.374 Y133.081 E16.72692
G1 X130.554 Y133.427 E16.75653
G1 X129.039 Y133.934 E16.80966
G1 X127.847 Y134.233 E16.85054
G1 X126.838 Y134.417 E16.88465
G1 X125.431 Y134.567 E16.93171
G1 X124.641 Y134.6 E16.95801
G1 X123.448 Y134.576 E16.9977
G1 X121.979 Y134.433 E17.04679
G1 X120.558 Y134.18 E17.09479
G1 X119.614 Y133.938 E17.12721
G1 X118.627 Y133.618 E17.16172
G1 X117.147 Y133.015 E17.21487
G1 X115.999 Y132.438 E17.2576
G1 X115.341 Y132.051 E17.28299
G1 X113.987 Y131.127 E17.33752
G1 X99.929 Y131.121 E17.80509
G1 X97.51 Y130.286 E17.8902
G1 X95.347 Y128.555 E17.98234
G1 X94.267 Y126.776 E18.05156
G1 X93.573 Y124.765 E18.12232
G1 X93.573 Y118.801 E18.32068
G1 X93.867 Y117.619 E18.3612
G1 X93.831 Y117.495 E18.36549
G1 X93.623 Y116.184 E18.40964
G1 X93.568 Y110.246 E18.60715
G1 X94.414 Y107.818 E18.69266
G1 X95.833 Y106.131 E18.76598
G1 X96.843 Y105.19 E18.8119
G0 F6000 X97.072 Y105.524
G1 F1200 X99.024 Y104.593 E18.88383
G1 X100.442 Y104.316 E18.93188
G1 X114.086 Y104.316 E19.38568
G1 X114.413 Y104.059 E19.39952
G1 X115.326 Y103.431 E19.43637
G1 X116.405 Y102.801 E19.47793
G1 X117.621 Y102.203 E19.523
G1 X118.46 Y101.862 E19.55312
G1 X119.843 Y101.412 E19.60149
G1 X120.606 Y101.218 E19.62768
G1 X122.085 Y100.956 E19.67764
G1 X123.427 Y100.826 E19.72248
G1 X124.619 Y100.8 E19.76214
G1 X125.787 Y100.859 E19.80103
G1 X126.598 Y100.95 E19.82818
G1 X127.672 Y101.138 E19.86444
G1 X129.279 Y101.553 E19.91964
G1 X130.029 Y101.806 E19.94597
G1 X131.349 Y102.354 E19.99351
G1 X132.517 Y102.942 E20.037
G1 X133.221 Y103.362 E20.06426
G1 X134.334 Y104.133 E20.1093
G1 X135.437 Y105.03 E20.15658
G1 X136.045 Y105.6 E20.1843
G1 X137.017 Y106.646 E20.2318
G1 X137.659 Y107.443 E20.26583
G1 X138.489 Y108.643 E20.31436
G1 X138.879 Y109.298 E20.33972
G1 X139.61 Y110.76 E20.39408
G1 X139.901 Y111.464 E20.41942
G1 X140.412 Y112.997 E20.47317
G1 X140.601 Y113.737 E20.49857
G1 X140.882 Y115.284 E20.55086
G1 X140.969 Y116.071 E20.5772
G1 X141.027 Y117.673 E20.63052
G1 X140.97 Y118.897 E20.67127
G1 X140.889 Y119.655 E20.69663
G1 X140.606 Y121.246 E20.75037
G1 X140.418 Y121.985 E20.77574
G1 X139.908 Y123.517 E20.82944
G1 X139.617 Y124.222 E20.85481
G1 X138.916 Y125.626 E20.907
G1 X138.38 Y126.526 E20.94184
G1 X137.713 Y127.489 E20.9808
G1 X137.01 Y128.369 E21.01827
G1 X136.132 Y129.315 E21.06119
G1 X135.329 Y130.064 E21.09772
G1 X134.561 Y130.695 E21.13078
G1 X133.347 Y131.551 E21.18018
G1 X132.446 Y132.091 E21.21512
G1 X131.218 Y132.712 E21.26089
G1 X130.398 Y133.058 E21.29049
G1 X128.942 Y133.546 E21.34156
G1 X127.775 Y133.839 E21.38158
G1 X126.766 Y134.023 E21.4157
G1 X125.414 Y134.167 E21.46092
G1 X124.624 Y134.2 E21.48722
G1 X123.456 Y134.176 E21.52607
G1 X122.049 Y134.039 E21.57309
G1 X120.657 Y133.792 E21.62011
G1 X119.737 Y133.557 E21.65169
G1 X118.75 Y133.237 E21.6862
G1 X117.326 Y132.657 E21.73734
G1 X116.202 Y132.093 E21.77917
G1 X115.544 Y131.706 E21.80456
G1 X114.381 Y130.913 E21.85138
G1 X114.143 Y130.727 E21.86143
G1 X99.995 Y130.721 E22.33199
G1 X97.706 Y129.931 E22.41253
G1 X95.653 Y128.288 E22.49999
G1 X94.63 Y126.603 E22.56555
G1 X93.973 Y124.699 E22.63254
G1 X93.973 Y118.85 E22.82708
G1 X94.284 Y117.601 E22.86989
G1 X94.226 Y117.431 E22.87586
G1 X94.023 Y116.18 E22.91802
G1 X93.969 Y110.313 E23.11316
G1 X94.769 Y108.017 E23.19403
G1 X96.106 Y106.424 E23.2632
G1 X97.072 Y105.524 E23.30712
G0 F6000 X97.301 Y105.858
G1 F1200 X99.148 Y104.977 E23.37518
G1 X100.483 Y104.716 E23.42042
G1 X114.224 Y104.716 E23.87745
G1 X114.64 Y104.389 E23.89505
G1 X115.553 Y103.761 E23.9319
G1 X116.606 Y103.147 E23.97245
G1 X117.772 Y102.574 E24.01566
G1 X118.611 Y102.233 E24.04578
G1 X119.942 Y101.8 E24.09233
G1 X120.705 Y101.606 E24.11852
G1 X122.155 Y101.35 E24.16749
G1 X123.436 Y101.226 E24.21029
G1 X124.599 Y101.2 E24.24899
G1 X125.742 Y101.257 E24.28705
G1 X126.553 Y101.348 E24.31419
G1 X127.603 Y101.532 E24.34965
G1 X129.151 Y101.932 E24.40283
G1 X129.901 Y102.185 E24.42915
G1 X131.195 Y102.723 E24.47576
G1 X132.312 Y103.286 E24.51737
G1 X133.016 Y103.706 E24.54463
G1 X134.082 Y104.443 E24.58774
G1 X135.163 Y105.322 E24.63408
G1 X135.771 Y105.892 E24.6618
G1 X136.705 Y106.897 E24.70743
G1 X137.347 Y107.694 E24.74147
G1 X138.145 Y108.848 E24.78813
G1 X138.535 Y109.503 E24.81349
G1 X139.24 Y110.913 E24.86592
G1 X139.531 Y111.617 E24.89126
G1 X140.024 Y113.096 E24.94311
G1 X140.213 Y113.836 E24.96851
G1 X140.484 Y115.328 E25.01895
G1 X140.571 Y116.115 E25.04528
G1 X140.627 Y117.655 E25.09654
G1 X140.572 Y118.854 E25.13646
G1 X140.491 Y119.612 E25.16181
G1 X140.218 Y121.147 E25.21367
G1 X140.03 Y121.886 E25.23903
G1 X139.538 Y123.364 E25.29084
G1 X139.247 Y124.069 E25.31621
G1 X138.572 Y125.421 E25.36647
G1 X138.036 Y126.321 E25.40131
G1 X137.4 Y127.239 E25.43845
G1 X136.697 Y128.119 E25.47592
G1 X135.859 Y129.022 E25.51689
G1 X135.056 Y129.771 E25.55341
G1 X134.307 Y130.386 E25.58565
G1 X133.117 Y131.224 E25.63405
G1 X132.265 Y131.734 E25.66708
G1 X131.037 Y132.355 E25.71285
G1 X130.271 Y132.679 E25.74051
G1 X128.845 Y133.158 E25.79055
G1 X127.703 Y133.445 E25.82971
G1 X126.694 Y133.629 E25.86382
G1 X125.397 Y133.767 E25.9072
G1 X124.607 Y133.8 E25.9335
G1 X123.464 Y133.776 E25.97153
G1 X122.119 Y133.645 E26.01647
G1 X120.756 Y133.404 E26.06251
G1 X119.86 Y133.176 E26.09326
G1 X118.873 Y132.856 E26.12777
G1 X117.505 Y132.299 E26.1769
G1 X116.405 Y131.748 E26.21782
G1 X115.747 Y131.361 E26.24321
G1 X114.628 Y130.598 E26.28825
G1 X114.282 Y130.327 E26.30287
G1 X100.061 Y130.321 E26.77586
G1 X97.902 Y129.576 E26.85183
G1 X95.959 Y128.021 E26.9346
G1 X94.993 Y126.43 E26.99651
G1 X94.373 Y124.633 E27.05973
G1 X94.373 Y118.899 E27.25045
G1 X94.703 Y117.573 E27.2959
G1 X94.621 Y117.365 E27.30333
G1 X94.423 Y116.176 E27.34342
G1 X94.37 Y110.38 E27.53621
G1 X95.123 Y108.218 E27.61235
G1 X96.379 Y106.717 E27.67745
G1 X97.301 Y105.858 E27.71936
G0 F6000 X97.53 Y106.192
G1 F1200 X99.272 Y105.361 E27.78355
G1 X100.524 Y105.116 E27.82599
G1 X114.363 Y105.116 E28.28627
G1 X114.867 Y104.719 E28.30761
G1 X115.78 Y104.091 E28.34447
G1 X116.782 Y103.506 E28.38306
G1 X117.923 Y102.945 E28.42535
G1 X118.762 Y102.604 E28.45547
G1 X120.041 Y102.188 E28.5002
G1 X120.804 Y101.994 E28.52639
G1 X122.224 Y101.744 E28.57434
G1 X123.445 Y101.626 E28.61514
G1 X124.579 Y101.6 E28.65287
G1 X125.697 Y101.655 E28.6901
G1 X126.508 Y101.746 E28.71724
G1 X127.534 Y101.926 E28.75189
G1 X129.023 Y102.311 E28.80304
G1 X129.773 Y102.564 E28.82937
G1 X131.015 Y103.08 E28.8741
G1 X132.107 Y103.63 E28.91477
G1 X132.811 Y104.05 E28.94203
G1 X133.83 Y104.754 E28.98323
G1 X134.889 Y105.614 E29.0286
G1 X135.497 Y106.184 E29.05632
